X:54
T:54 The Ball
C:Welch MS
I:abc2nwc
M:6/8
L:1/8
K:G
d|B2G A2F|GAG D2D|E2E c2B|B3A2d|B2G A2F|GAG D2D|E2c A2F|G3G2:|
B|A2D c2A|BdB G2G|c2D c2B|B3A2c/2d/2|e2c A2f|g2d B2G|E2c A2F|G3G2:|


